assets/icons/qvision/dynamic_form.svg

<svg width="24" height="24" viewBox="0 0 24 24" fill="none" xmlns="http://www.w3.org/2000/svg">
<g clip-path="url(#clip0_147_4120)">
<path d="M17 20V11H15V4H22L20 9H22L17 20ZM15 13V20H4C2.9 20 2 19.1 2 18V15C2 13.9 2.9 13 4 13H15ZM6.25 15.75H4.75V17.25H6.25V15.75ZM13 4V11H4C2.9 11 2 10.1 2 9V6C2 4.9 2.9 4 4 4H13ZM6.25 6.75H4.75V8.25H6.25V6.75Z" fill="#323232"/>
</g>
<defs>
<clipPath id="clip0_147_4120">
<rect width="24" height="24" fill="white"/>
</clipPath>
</defs>
</svg>

<svg xmlns="http://www.w3.org/2000/svg" enable-background="new 0 0 24 24" height="24" viewBox="0 0 24 24" width="24"><g><rect fill="none" height="24" width="24"/><path d="M17,20v-9h-2V4h7l-2,5h2L17,20z M15,13v7H4c-1.1,0-2-0.9-2-2v-3c0-1.1,0.9-2,2-2H15z M6.25,15.75h-1.5v1.5h1.5V15.75z M13,4v7H4c-1.1,0-2-0.9-2-2V6c0-1.1,0.9-2,2-2H13z M6.25,6.75h-1.5v1.5h1.5V6.75z"/></g></svg>
